icons/transcript-32.svg

<?xml version="1.0" encoding="UTF-8"?><svg id="icons" xmlns="http://www.w3.org/2000/svg" viewBox="0 0 32 32"><defs><style>.cls-1{fill:none;}.cls-1,.cls-2{stroke-width:0px;}.cls-2{fill:#000;}</style></defs><rect class="cls-1" width="32" height="32"/><rect class="cls-1" width="32" height="32"/><path class="cls-2" d="M5,2v28h22V2H5ZM26,29H6V3h20v26ZM23,15h-14v-1h14v1ZM20,25h-11v-1h11v1ZM12,10h-3v-1h3v1ZM23,9v1h-10v-1h10ZM23,19v1h-4v-1h4ZM18,20h-9v-1h9v1Z"/></svg>

<svg xmlns="http://www.w3.org/2000/svg" viewBox="0 0 32 32"><path d="M0 0h32v32H0z"/><path d="M0 0h32v32H0z"/><path d="M5 2v28h22V2H5zm21 27H6V3h20v26zm-3-14H9v-1h14v1zm-3 10H9v-1h11v1zm-8-15H9V9h3v1zm11-1v1H13V9h10zm0 10v1h-4v-1h4zm-5 1H9v-1h9v1z" stroke-width="0"/></svg>
